X: 10868
T: Drocketty March, The
R: jig
M: 6/8
K: Gmajor
GBd gfe|edB ded|GBd gfe|edB A2 G|
GBd gfe|edB def|gag (3efg e|dBG A2 G:|
B2 d c2 e|B2 d cBA|B2 d c2 e|dBG A2 G|
Bcd cde|Bcd cBA|Bcd cde|dBG A2 G:|
d2 d G2 G|dBd gfe|d2 d G2G|dBG A2 G|
d2 d G2 G|dBd gfe|dBd GBd|dBG A2 G:|

